icons/filled/circle-number-0.svg

<svg xmlns="http://www.w3.org/2000/svg" width="24" height="24" viewBox="0 0 24 24" fill="currentColor"><path d="M12 2c5.523 0 10 4.477 10 10s-4.477 10 -10 10s-10 -4.477 -10 -10s4.477 -10 10 -10zm0 5a3 3 0 0 0 -2.995 2.824l-.005 .176v4l.005 .176a3 3 0 0 0 5.99 0l.005 -.176v-4l-.005 -.176a3 3 0 0 0 -2.995 -2.824zm0 2a1 1 0 0 1 .993 .883l.007 .117v4l-.007 .117a1 1 0 0 1 -1.986 0l-.007 -.117v-4l.007 -.117a1 1 0 0 1 .993 -.883z"/></svg>

<svg xmlns="http://www.w3.org/2000/svg" width="24" height="24" fill="currentColor"><path d="M12 2c5.523 0 10 4.477 10 10s-4.477 10-10 10S2 17.523 2 12 6.477 2 12 2m0 5a3 3 0 0 0-2.995 2.824L9 10v4l.005.176a3 3 0 0 0 5.99 0L15 14v-4l-.005-.176A3 3 0 0 0 12 7m0 2a1 1 0 0 1 .993.883L13 10v4l-.007.117a1 1 0 0 1-1.986 0L11 14v-4l.007-.117A1 1 0 0 1 12 9"/></svg>
